X:1
T:Title
%%score { ( 1 3 4 ) | 2 }
L:1/8
M:4/4
K:Bb
V:1 treble nm="Grand Piano"
V:3 treble 
V:4 treble 
V:2 bass 
V:1
 z4 z2[Q:1/4=100] [B,D][CE] | [DF]>[DF] GA [DB]2 F2 |[M:9/8] c>c[FB] c d2- dD[CE] | %3
[M:4/4] [DF]>[DF] GA [DB]2 [Fd]2 |[M:9/8] [Fc]>[FA][=EG] [EA] F2- FFF | %5
[M:4/4] c>A GA [DB][DF][DF][B,F] | [B,EG]>[B,GB] [B,FA][B,EG] [B,DF][K:bass][F,CE][F,B,D][F,CE] | %7
[M:9/8][K:treble] [DF]>[DF][EG] [EA] [DB]2 d3 |[M:4/4] c>[Gc] [FB][EA] [DB]4 | c6 z2 | B6 z2 | %11
 c6 z2 | [Fd]6 [Fd]>[Fd] |[M:9/8] [^Fd]>[Fc][GB]- [GB]/[FA]/ G2 [Ge]3 |[M:7/8] d>Bc>A [DB]3 |] %15
V:2
 z4 z2 [B,,F,][B,,F,] | [B,,B,]>[B,,B,] [E,B,E][F,E] [B,,F,]2 [D,B,]2 | %2
[M:9/8] [F,A,F]>[F,A,F][D,B,][K:treble] [F,A,F] [B,F]2- [B,F][K:bass][B,,F,B,][B,,F,] | %3
[M:4/4] [B,,B,]>[B,,B,] [E,B,E][F,E] [B,,F,]2 [B,,B,]2 | %4
[M:9/8] [C,A,]>[C,C][C,B,] [C,C] [F,A,]2- [F,A,][F,A,][F,A,] | %5
[M:4/4] [F,A,F]>[F,CF] [F,A,E][F,CE] [B,,B,][B,,B,][B,,B,]D, | E,>E, E,E, B,,B,,B,,B,, | %7
[M:9/8] [B,,B,]>[B,,B,][E,B,] [B,,F,] [B,,F,]2 [B,F]3 |[M:4/4] [E,G,E]>[E,E] [F,D][F,C] [B,,B,]4 | %9
 [F,A,F]>[F,A,] [F,A,]>[F,A,] [F,A,]2 z2 | [B,,F,]>[B,,F,] [B,,F,]>[B,,F,] [B,,F,]2 z2 | %11
 [F,A,F]2 [F,A,]2 [F,A,]>[F,A,F] [D,B,]>[F,A,] | B,>B, B,>B, B,2 [B,,B,]>[B,,B,] | %13
[M:9/8] [D,A,]>[D,A,][D,D]- [D,D]/[D,C]/ [E,B,]2 [E,B,]3 | %14
[M:7/8] [F,B,F]>[F,B,D][F,A,E]>[F,CE] [B,,B,]3 |] %15
V:3
 x8 | x8 |[M:9/8] x9 |[M:4/4] x8 |[M:9/8] x9 |[M:4/4] x8 | x5[K:bass] x3 |[M:9/8][K:treble] x9 | %8
[M:4/4] x8 | z z/ F/ F>F z z/ A/ G>A | D>D D>D D2 z2 | z2 F2 F>c [FB]>[Fc] | x8 |[M:9/8] x9 | %14
[M:7/8] x7 |] %15
V:4
 x8 | x8 |[M:9/8] x9 |[M:4/4] x8 |[M:9/8] x9 |[M:4/4] x8 | x5[K:bass] x3 |[M:9/8][K:treble] x9 | %8
[M:4/4] x8 | z4 F2 z2 | x8 | x8 | x8 |[M:9/8] x9 |[M:7/8] x7 |] %15

